X: 15
T:H.R.H. The Prince of Wales's Favourite
% Nottingham Music Database
S:Leslie Dolman, via EF
P:AABBCC
M:4/4
L:1/4
K:D
A/2G/2|"D"FA dc|"G"B/2A/2B/2c/2 "Em"Bg|"A7"ec Ac|"D"d/2c/2d/2e/2 "A7"dA/2G/2|
"D"FA dc|"G"B/2A/2B/2c/2 "Em"Bg|"A7"ec Ac|"D"d2 d:||:
a|"D"fd "B7"B^d|"Em"e/2^d/2e/2f/2 eg|"A7"ec Ac|"D"d/2c/2d/2e/2 "A7"dA/2G/2|
"D"FA dc|"G"B/2A/2B/2c/2 "Em"Bg|"A7"ec Ac|"D"d2 d:||:
A/2G/2|"D"FF FE/2F/2|"G"GG GG/2F/2|"A7"EE ED/2E/2|
"D"FF FA/2G/2|"Bm"FF Fd/2c/2|"Em"BB Bg|"A7"ec Ac|"D"d2 d:|


